X:1
T:O Mirtillo
T:O Mirtillo
T:Giovanni Ghizzolo
C:Giovanni Ghizzolo
%%score 1 { 2 | 3 }
L:1/8
Q:1/4=120
M:4/4
K:C
V:1 bass nm="Bass" snm="B"
V:2 treble nm="MusicXML Part"
V:3 bass 
V:1
"^Source: Madrigali et Arie---Libro terzo---Venetia---A.Raverij---1609.\nEditor: André Vierendeels (27/12/09)\nContinuo André Vierendeels" z G, A,>B, C2 E,2 | %1
w: O _ _ _ Mir-|
 G,4 G,4"^MADRIGALE" | z D, E,>F, G,2 B,,2 | D,4 D,4 | z2 ^F,2 G,2 E,2- | E,2 F,G, E,4 | %6
w: til- lo,|O _ _ _ Mir-|til- lo,|Mir- til- l'A-|* ni- ma mi-|
 D,4 G,E, A,2- | A,2 F,E, G,4 | G,2 G,,E,, A,,^F,, B,,G,, | C,A,,D,B,, E,D,E,C, | %10
w: a Se ve- des|_ ti qui den-|tro co- * me _ sta'l _|cor _ di _ ques- * * *|
 G,>A, B,/A,/B,/G,/ DB,>CD | ^F,,>G,, A,,/D,,/D,, E,,>"^-natural"F,, G,,/C,,/C,, | %12
w: ||
 D,,2 C,,B,,, C,,2 D,,2 | G,,4 z2 G,2 | C/A,/B,/G,/ A,/F,/G,/E,/ F,/D,/E,/C,/ D,/B,,/C,/A,,/ | %15
w: |sta che|chia- * * * * * * * * * * * * * * *|
 B,,<G,, A,,/B,,/C,/D,/ E,/"^-natural"F,/G, ^F,/F,/F,/F,/ | G,4 B,,4 | ^C,4 D,4- | D,4 ^C,4 | %19
w: |mi cru-|del- is-|* si-|
 D,E,>F,D,>E,F,>G,E,- |"^-natural" E,A,,/B,,/ C,/D,/E,/F,/ G,/A,/B,/C/ D2- | %21
w: m'A- * * * * * * *||
 D2 E/D/C/B,/ ^CC/C/ C/C/B,/C/ | D4 z D,<B,,C,/D,/ | G,, G,<E,F,/G,/ C,4- | C,C,B,,A,, E,4 | %25
w: * ma- * * * ril- * * * * * *|li so _ _ _|ben, so _ _ _ ben|_ che tu di le-|
 E,,4 A,4- | A,2 G,F, G,4- | G,A,F,E, F,4- | F,2 D,/E,/F,/D,/ E,/F,/G,/C,/ A,,/B,,/C,/A,,/ | %29
w: i quel-|* la pie- ta|_ che da lei chie-|* d'ha- * * * * * * * * * * *|
 B,,/C,/D,/G,,/ E,,/F,,/G,,/C,,/ C,/D,/E,/F,/ G,C,, | G,,3 F,, G,,E,,F,,G,, | C,,4 z EDC | %32
w: |vre- * * * * *|sti O a- ni-|
 B,A, B,4 C2- | C2 A,G, A,4 | G,4 z E,E,F, | G,3 C, D,4 | z A,A,B, C3 F, | G,2 C4 B,B, | %38
w: m'in a- mor trop-|* p'in- fe- li-|ci che gio- v'a|te cor mio,|che gio- v'a te cor|mio l'es- ser a-|
"^Trillo" B,8 | A,4 z D,C,B,, | A,,4- A,,A,G,F, | E,2 D,2 _B,/A,/B,/G,/ A,/F,/G,/A,/ | D,8 | %43
w: ma-|to, che gio- v'a|me _ l'ha- ver si|ca- ro'a- man- * * * * * * *|te.|
 E,2 ^F,2 G,4- | G,2 C,C, D,3 ^C,/C,/ | D,4 z E,F,G, | %46
w: Per- che'o cru-|* da mia sor- * *|te. Ne dis- u-|
 A,/A,,/D,/E,/ F,/F,,/D,,/E,,/ F,,/G,,/A,,/B,,/ C,,/D,,/E,,/C,,/ | G,,4 z G,/F,/ G,/F,/E,/D,/ | %48
w: ni- * * * * * * * * * * * sci _ _ _|tu s'a- * * * * *|
 C,>D, E,/D,/E,/C,/ G,>A, B,/A,/B,/G,/ | C>D ED/C/ B,/A,/G,/F,/ E,/D,/C,/B,,/ | %50
w: mo _ _ _ _ _ _ _ _ _ _ _|_ _ _ _ _ _ _ _ _ _ _ _ _|
 A,,/G,,/ F,,2 E,,/D,,/ C,,2 C2 | C>D B,>C A,/B,/ C2 B,/B,/ | C4 z2 E,2 | E,4- E,F,D,C, | %54
w: * * * * * * ne|strin- * * * * * * * *|ge e|tu _ per- che ne|
 D,D,G,E, A,4- | A,2 G,>F, F,4 | D,,E,,/F,,/ G,,/A,,/B,,/C,/ D,/E,/F,/G,/ A,/B,,/F,,/G,,/ | %57
w: srin- gi se ne par-|* t'il des- tin|par- * * * * * * * * * * * * * *|
 B,,/D,,/E,,/F,,/ G,,4 B,,,B,,, | D,,8 | G,,8 |] %60
w: * * * * * fi- d'A-|mo-|re.|
V:2
 [EGc]8 | [DGB]8 | [DGB]8 | [D^FA]8 | [D^FA]4 [EA]4- | [EA]2 [DG]2 [^CEA]4 | [^FA]4 [EG]4 | %7
 [FA]4 [DG]4 | [EG]2 [DG]2 [CE]2 [DF]2 | [EA]2 [Fd]2 [Gd]2 [Ec]2 | [DGB]4 [^FA]4- | [FA]4 [EG]4 | %12
 [FA]4 [CE]2 [DF]2 | [DGB]8 | [EGc]8 | [D-GB-]8 | [DGB]8 | [EA]4 [Dd]4 | [EA]4 [EA]4 | [FA]8 | %20
 [EA]4 [DG]4 | [EA]4 [A^c]4 | [^FAd]8 | [DGB]4 [EGc]4 | [EAc]4 [Gc]4 | [GB]4 [EA]4- | [EA]4 [DB]4 | %27
 [EGc]4 [FA]4- | [FA]4 [EA]4 | [EG]4 [CG]4 | [DGB]8 | [EGc]4 [Ec]4 | [GB]8 | [FA]8 | %34
 [DGB]4 [EGc]4 | [DG]4 [DB]4 | [Ac]4 [Gc]4 | [Gc]4 [Ec]4 | [E^GB]8 | [EA^c]4 [FA]4 | [EA]8 | %41
 [EG]2 [FA]2 [EA]4 | [^FA]8 | [EG]4 [DG]4 | [CE]4 [FA]2 [^CE]2 | [DB]4 [CA]4 | [DFA]6 [EG]2 | %47
 [DGB]8 | [EG]4 [DGB]4 | [EGB]8 | [FA]4 [E-Gc-]4 | [EGc]4 [FA]4 | [EGc]8 | [EA]8 | [GB]4 [FAc]4 | %55
 [EGc]4 [FAc]4 | %56
 [FA]8"^Notes: Original keys: Fa 4rth, Fa 4rth\n            Dedication: Al M.Ill.Sig. Ottavio Valera\n            Editorial accidentals above the staff" | %57
 [DF]2 [EG]4 [DG]2 | [^FA]8 | [DGB]8 |] %60
V:3
 C,8 | G,,8 | G,,8 | D,,8 | D,4 ^C,4 | A,,2 G,,2 A,,4 | D,4 C,3 A,, | D,4 B,,4 | %8
 C,2 G,,2 A,,2 B,,2 | C,2 D,2 E,2 C,2 | G,,4 D,,4- | D,,4 C,,4 | D,,2 C,,B,,, C,,2 D,,2 | %13
 G,,4 G,4 | C,8 |"^-natural""^-natural" G,,8 | G,,8- | G,,4 ^F,,4 | E,,4 A,,4 | D,,8 | A,,4 G,,4 | %21
 A,,8 | D,8 | G,,4 C,4 | A,,4 E,,4 | E,,4 A,4- | A,2 G,F, G,4 | C,4 D,4 | D,,4 A,,4 | %29
 E,,2 C,,2 C,4 | G,,8 | C,,4 C,2 A,,2 | E,,4 E,4 | D,8 | G,,4 C,4 | B,,2 A,,2 G,,4 | F,4 E,2 D,2 | %37
 C,4 A,,4 | E,,8 | A,,4 D,2 D,,2 | A,,4 A,,4 | C,2 D,2 A,,4 | D,8 | C,4 B,,4 | A,,8 | G,,4 A,,4 | %46
 D,,6 C,,2 | G,,4 G,,4 | C,4 G,,4 | C,8 | F,,2 E,,D,, C,,4 | C,4 F,2 G,2 | C,8 | A,,8 | G,,4 F,,4 | %55
 C,4 F,,4 | D,,8 | D,,4 B,,,4 | D,,8 | G,,8 |] %60

